public/payments/crypto/bitcoin.svg

<svg width="16" height="21" viewBox="0 0 16 21" fill="none" xmlns="http://www.w3.org/2000/svg">
<mask id="mask0_139_2" style="mask-type:luminance" maskUnits="userSpaceOnUse" x="1" y="4" width="14" height="14">
<path d="M14.4375 4H1V17.6818H14.4375V4Z" fill="white"/>
</mask>
<g mask="url(#mask0_139_2)">
<path d="M14.2364 12.4958C13.339 16.1606 9.69305 18.3909 6.09285 17.477C2.49416 16.5634 0.303408 12.8513 1.20124 9.18678C2.09828 5.52155 5.74428 3.29105 9.34334 4.2047C12.9433 5.11836 15.134 8.83079 14.2364 12.4958Z" fill="#F7931A"/>
<path d="M10.6817 9.86625C10.8155 8.9559 10.1347 8.46652 9.20373 8.14008L9.50573 6.9069L8.76839 6.71985L8.47441 7.92057C8.28053 7.87135 8.08149 7.82497 7.88362 7.77899L8.17975 6.57035L7.44287 6.3833L7.14069 7.61608C6.98028 7.5789 6.82273 7.54215 6.66988 7.50343L6.67072 7.49955L5.65387 7.24104L5.45773 8.04282C5.45773 8.04282 6.0048 8.17048 5.99326 8.17835C6.29186 8.25419 6.34586 8.45545 6.33688 8.61492L5.99288 10.0198C6.01345 10.0251 6.04012 10.0328 6.06951 10.0448C6.04495 10.0386 6.01875 10.0318 5.99158 10.0252L5.50942 11.9933C5.47293 12.0856 5.3803 12.2242 5.17154 12.1716C5.17893 12.1825 4.63561 12.0355 4.63561 12.0355L4.26953 12.8947L5.22908 13.1383C5.40759 13.1838 5.58253 13.2315 5.75478 13.2764L5.44967 14.5237L6.18617 14.7107L6.48834 13.4766C6.68953 13.5323 6.88479 13.5836 7.07594 13.6319L6.77481 14.8602L7.5122 15.0472L7.81727 13.8022C9.07464 14.0445 10.0201 13.9468 10.418 12.789C10.7387 11.8568 10.402 11.3191 9.74055 10.9685C10.2223 10.8554 10.585 10.5326 10.6817 9.86625ZM8.99704 12.2713C8.76919 13.2035 7.22753 12.6996 6.7277 12.5732L7.13259 10.9207C7.63238 11.0478 9.23518 11.2992 8.99704 12.2713ZM9.2251 9.85274C9.0172 10.7007 7.73408 10.2699 7.31786 10.1643L7.68495 8.66555C8.10118 8.7712 9.44157 8.96834 9.2251 9.85274Z" fill="white"/>
</g>
</svg>

<svg xmlns="http://www.w3.org/2000/svg" width="16" height="21" fill="none"><mask id="a" width="14" height="14" x="1" y="4" maskUnits="userSpaceOnUse" style="mask-type:luminance"><path fill="#fff" d="M14.44 4H1v13.68h13.44V4Z"/></mask><g mask="url(#a)"><path fill="#F7931A" d="M14.24 12.5a6.71 6.71 0 0 1-8.15 4.98 6.85 6.85 0 0 1-4.89-8.3A6.71 6.71 0 0 1 9.34 4.2c3.6.92 5.8 4.63 4.9 8.3Z"/><path fill="#fff" d="M10.68 9.87c.14-.91-.55-1.4-1.48-1.73l.3-1.23-.73-.19-.3 1.2-.59-.14.3-1.21-.74-.19-.3 1.24-.47-.12-1.02-.26-.2.8s.55.13.54.14c.3.07.36.28.35.43l-.35 1.41a.6.6 0 0 1 .08.02l-.08-.01-.48 1.96c-.04.1-.13.23-.34.18l-.53-.13-.37.85.96.25.52.14-.3 1.24.74.2.3-1.24.59.15-.3 1.23.73.19.3-1.25c1.26.24 2.21.15 2.6-1.01.33-.93 0-1.47-.67-1.82.48-.11.85-.44.94-1.1ZM9 12.27c-.23.93-1.77.43-2.27.3l.4-1.65c.5.13 2.1.38 1.87 1.35Zm.23-2.42c-.21.85-1.5.42-1.91.31l.36-1.5c.42.11 1.76.3 1.55 1.2Z"/></g></svg>
